X:1     %Music
T:Christmas Day in the Morning
B:Singing Together, Autumn 1966, BBC Publications
F:http://www.folkinfo.org/songs
M:6/8     %Meter
L:1/8     %
K:F
F |A2 B ccc |BAG F2 G |AAB c2 c | dcB c2 
w:As I sat un-der a sy-ca-more tree, a sy-ca-more tree, a sy-ca-more tree,
c |f2 f (_ed)c |B2 c d3 |A2 B cBA | G3 F2  |]
w: I looked me out_ up-on the sea, Christ-mas day in the morn-ing.